X:1
T:Title
%%score { ( 1 3 ) | ( 2 4 ) }
L:1/8
M:4/4
K:F
V:1 treble nm="Grand Piano"
V:3 treble 
V:2 bass 
V:4 bass 
V:1
 z4 z2[Q:1/4=106] FG | A2 A2 A2 G2 | c6 F2 | [FA]4 [EG]4 | F6 FG | A2 A2 A2 G2 | c6 F2 | %7
 [FA]4 [EG]4 | F6 A[GB] | [Ac]2 [Ac]2 [Ac]2 [FA]2 | [Ac]6 FG | A2 c2 c2 A2 | [EG]6 [FA][GB] | %13
 [Ac]2 [Ac]2 [Ac]2 [CFA]2 | [FAc]6 [A,F]2 | [CFA]4 [B,EG]4 |[M:3/4] F6 |[M:1/4] A2 | %18
[M:4/4] c2 A2 d3 A | [Fc]BBA [EB]3 [EB] | [EB]2 [EG]2 [Ec]3 [EG] |[M:7/8] BAA _A =A3 |[M:1/8] A | %23
[M:4/4] A2 F2 B3 A | .[B,DA]2 D-[DG] D3 D | z [A,F][CF][EG] [CFA] [A,CF]3 | %26
[M:7/8] [CFA]2 [B,EG]2 [A,F]3 |] %27
V:2
 z4 z2 [F,A,][F,B,F] | [F,CF]2 [F,CF]2 [F,CF]2[K:treble] [B,CE]2 | [A,CF]6[K:bass] [F,A,]2 | %3
 [C,C]4 [C,B,]4 | [F,A,]6 [F,A,][K:treble][F,B,F] | [F,CF]2 [F,CF]2 [F,CF]2 [B,CE]2 | %6
 [A,CF]6[K:bass] [F,A,]2 | [C,C]4 [C,B,]4 | [F,A,]6 [F,CF][F,C] | [F,F]2 [F,F]2 [F,F]2 [F,C]2 | %10
 [F,F]6 [A,C][G,CE] | [F,CF]2 [F,A,F]2 [F,A,F]2 [F,CF]2 | [C,C]6 [F,C][F,C] | %13
 [F,F]2 [F,F]2 [F,F]2 F,2 | F,6 F,2 | C,4 C,4 |[M:3/4] [F,A,]6 |[M:1/4] [F,CF]2 | %18
[M:4/4] [F,A,F]2 [F,CF]2 [F,B,F]3 [F,CF] | A,[G,E]G,^F, [C,G,]3 [C,G,] | %20
 [C,G,]2 [C,B,]2 [C,G,]3 [C,B,] |[M:7/8] DCC =B, [F,CF]3 |[M:1/8] [F,CF] | %23
[M:4/4] [F,CF]2 [F,A,C]2 [F,DF]3 [F,CF] | z G z G, [B,,F,B,]3 [B,,F,B,] | [A,,F,]F,,A,,C, F, F,3 | %26
[M:7/8] C,2 C,2 F,3 |] %27
V:3
 x8 | x8 | x8 | x8 | x8 | x8 | x8 | x8 | x8 | x8 | x8 | x8 | x8 | x8 | x8 | x8 |[M:3/4] x6 | %17
[M:1/4] x2 |[M:4/4] x8 | z2 E2 z4 | x8 |[M:7/8] x7 |[M:1/8] x |[M:4/4] x8 | z2 .[A,^F]2 z4 | %25
 C2 z2 z4 |[M:7/8] x7 |] %27
V:4
 x8 | x6[K:treble] x2 | x6[K:bass] x2 | x8 | x7[K:treble] x | x8 | x6[K:bass] x2 | x8 | x8 | x8 | %10
 x8 | x8 | x8 | x8 | x8 | x8 |[M:3/4] x6 |[M:1/4] x2 |[M:4/4] x8 | C,2 C,2 z4 | x8 | %21
[M:7/8] [F,F]2 [F,F]2 z z2 |[M:1/8] x |[M:4/4] x8 | B,,2 B,,2 z4 | x8 |[M:7/8] x7 |] %27

